!!!OTL: HOERT WENN IHR KEINEN GARTEN HABT
!!!ARE: Europa, Mitteleuropa, Deutschland
!!!SCT: F0238
!!!YEM: Copyright 1995, estate of Helmut Schaffrath.
**kern
*ICvox
*Ivox
*M3/4
*k[b-]
*F:
{8c
=1
4.f
8e
8f
8g
=2
8.a
16g
4f
8r}
{8c
=3
4.g
8f#
8g
8a
=4
4b-
4g
8r}
{8c
=5
4.a
8g
8a
8cc
=6
8.bn
16a
4g
8r}
{8bn
=7
4.dd
8g
8a
8bn
=8
4dd
4cc
8r}
{8ee
=9
4.ff
8g
8a
8bn
=10
4dd
4cc
8r}
{8cc
=11
4.b-
8g
8e
8c
=12
8.f
16a
4cc
8r}
{8cc
=13
4.b-
8g
8e
8c
=14
8.f
16a
4cc
8r}
{8cc
=15
4.ff
8dd
8cc
8a
=16
8.b-
16g
4f
8r}
==
!!!AGN: Jugend - Lied, Natur
!!!ONB: ESAC (Essen Associative Code) Database: FINK
!!!AMT: simple triple
!!!AIN: vox
!!!EED: Helmut Schaffrath
!!!EEV: 1.0
*-
